icons/op-plus-24.svg

<svg width="24" height="24" viewBox="0 0 24 24" fill="none" xmlns="http://www.w3.org/2000/svg">
<path d="M18.6824 4H5.31765C4.59608 4 4 4.59608 4 5.31765V18.6824C4 19.4039 4.59608 20 5.31765 20H18.6824C19.4039 20 20 19.4039 20 18.6824V5.31765C20 4.59608 19.4039 4 18.6824 4ZM17.3333 13.349H13.349V17.3333H10.651V13.349H6.66667V10.651H10.651V6.66667H13.349V10.651H17.3333V13.349Z" fill="black"/>
</svg>

<svg xmlns="http://www.w3.org/2000/svg" width="24" height="24" viewBox="0 0 24 24"><path d="M18.682 4H5.318C4.596 4 4 4.596 4 5.318v13.364C4 19.404 4.596 20 5.318 20h13.364c.722 0 1.318-.596 1.318-1.318V5.318C20 4.596 19.404 4 18.682 4Zm-1.349 9.349h-3.984v3.984h-2.698v-3.984H6.667v-2.698h3.984V6.667h2.698v3.984h3.984v2.698Z"/></svg>
